; generated by Slic3r 1.30.0.25-prusa3d-release_candidate_1_3-win64 on 2016-11-10 at 10:54:27

; external perimeters extrusion width = 0.45mm
; perimeters extrusion width = 0.45mm
; infill extrusion width = 0.45mm
; solid infill extrusion width = 0.45mm
; top infill extrusion width = 0.40mm

M107
M115 U3.0.8 ; tell printer latest fw version
M83  ; extruder relative mode
M104 S210 ; set extruder temp
M140 S55 ; set bed temp
M190 S55 ; wait for bed temp
M109 S210 ; wait for extruder temp
G28 W ; home all without mesh bed level
G80 ; mesh bed leveling
G1 Y-3.0 F1000.0 ; go outside pritn area
G1 X60.0 E9.0  F1000.0 ; intro line
G1 X100.0 E12.5  F1000.0 ; intro line
G21 ; set units to millimeters
G90 ; use absolute coordinates
M83 ; use relative distances for extrusion
G1 E-0.80000 F2100.00000
G1 Z0.150 F7200.000
G1 X91.431 Y47.663 F7200.000
G1 E0.80000 F2100.00000
M204 S1000
G1 F1800
G1 X91.716 Y47.379 E0.00974
G1 X92.202 Y47.004 E0.01485
G1 X92.355 Y46.915 E0.00428
G1 X93.557 Y46.590 E0.03011
G1 X195.551 Y46.590 E2.46671
G1 X196.753 Y46.915 E0.03011
G1 X196.906 Y47.004 E0.00428
G1 X197.392 Y47.379 E0.01485
G1 X197.677 Y47.663 E0.00974
G1 X198.361 Y49.082 E0.03809
G1 X198.385 Y49.393 E0.00754
G1 X199.373 Y125.920 E1.85094
G1 X199.373 Y160.920 E0.84647
G1 X199.301 Y161.620 E0.01702
G1 X199.140 Y162.222 E0.01507
G1 X198.990 Y162.583 E0.00947
G1 X198.678 Y163.123 E0.01508
G1 X198.452 Y163.418 E0.00900
G1 X197.999 Y163.875 E0.01555
G1 X197.688 Y164.113 E0.00947
G1 X197.149 Y164.425 E0.01507
G1 X196.787 Y164.575 E0.00947
G1 X196.185 Y164.736 E0.01508
G1 X195.485 Y164.807 E0.01702
G1 X93.485 Y164.807 E2.46686
G1 X92.785 Y164.736 E0.01702
G1 X92.183 Y164.575 E0.01507
G1 X91.821 Y164.425 E0.00947
G1 X91.281 Y164.113 E0.01507
G1 X90.970 Y163.875 E0.00947
G1 X90.530 Y163.434 E0.01507
G1 X90.291 Y163.123 E0.00947
G1 X89.980 Y162.583 E0.01508
G1 X89.830 Y162.222 E0.00947
G1 X89.668 Y161.620 E0.01507
G1 X89.597 Y160.920 E0.01702
G1 X89.597 Y125.885 E0.84732
G1 X90.724 Y49.389 E1.85024
G1 X90.747 Y49.082 E0.00744
G1 X91.405 Y47.718 E0.03664
G1 F5760
G1 X91.716 Y47.379 E-0.15928
G1 F5760
G1 X92.202 Y47.004 E-0.21269
G1 F5760
G1 X92.355 Y46.915 E-0.06128
G1 F5760
G1 X93.266 Y46.669 E-0.32675
G1 E-0.04000 F2100.00000
G1 X150.516 Y111.716 F7200.000
G1 E0.80000 F2100.00000
G1 F1440
G1 X150.262 Y112.330 E0.01607
G1 X149.857 Y112.857 E0.01607
G1 X149.330 Y113.262 E0.01607
G1 X148.716 Y113.516 E0.01607
G1 X148.096 Y113.598 E0.01512
G1 X135.949 Y113.598 E0.29379
G1 X135.317 Y113.515 E0.01540
G1 X134.693 Y113.256 E0.01636
G1 X134.156 Y112.844 E0.01636
G1 X133.744 Y112.307 E0.01636
G1 X133.485 Y111.683 E0.01636
G1 X133.402 Y111.051 E0.01540
G1 X133.402 Y98.901 E0.29386
G1 X133.492 Y98.264 E0.01556
G1 X133.738 Y97.670 E0.01554
G1 X134.143 Y97.143 E0.01607
G1 X134.670 Y96.738 E0.01607
G1 X135.264 Y96.492 E0.01554
G1 X135.901 Y96.402 E0.01556
G1 X147.776 Y96.402 E0.28721
G1 X148.479 Y96.495 E0.01714
G1 X149.170 Y96.781 E0.01809
G1 X149.764 Y97.236 E0.01809
G1 X150.219 Y97.830 E0.01809
G1 X150.496 Y98.498 E0.01749
G1 X150.598 Y99.221 E0.01765
G1 X150.598 Y111.096 E0.28721
G1 X150.524 Y111.657 E0.01367
G1 X150.138 Y111.615 F7200.000
G1 F1080
G1 X149.923 Y112.135 E0.01360
G1 X149.581 Y112.581 E0.01360
G1 X149.135 Y112.923 E0.01360
G1 X148.615 Y113.138 E0.01360
G1 X148.071 Y113.210 E0.01327
G1 X135.974 Y113.210 E0.29256
G1 X135.419 Y113.137 E0.01355
G1 X134.888 Y112.917 E0.01389
G1 X134.432 Y112.568 E0.01389
G1 X134.083 Y112.112 E0.01389
G1 X133.863 Y111.581 E0.01389
G1 X133.790 Y111.026 E0.01355
G1 X133.790 Y98.928 E0.29258
G1 X133.869 Y98.367 E0.01371
G1 X134.077 Y97.865 E0.01312
G1 X134.419 Y97.419 E0.01360
G1 X134.865 Y97.077 E0.01360
G1 X135.367 Y96.869 E0.01312
G1 X135.928 Y96.790 E0.01371
G1 X147.751 Y96.790 E0.28594
G1 X148.378 Y96.873 E0.01529
G1 X148.975 Y97.120 E0.01562
G1 X149.487 Y97.513 E0.01562
G1 X149.880 Y98.025 E0.01562
G1 X150.119 Y98.601 E0.01506
G1 X150.210 Y99.248 E0.01581
G1 X150.210 Y111.071 E0.28594
G1 X150.146 Y111.555 E0.01182
G1 X150.421 Y111.898 F7200.000
G1 F5760
G1 X149.923 Y112.135 E-0.21495
G1 F5760
G1 X149.581 Y112.581 E-0.19481
G1 F5760
G1 X149.135 Y112.923 E-0.19481
G1 F5760
G1 X148.720 Y113.095 E-0.15544
G1 E-0.04000 F2100.00000
G1 X158.402 Y121.402 F7200.000
G1 E0.80000 F2100.00000
G1 F1440
G1 X125.598 Y121.402 E0.79337
G1 X125.598 Y88.598 E0.79337
G1 X158.402 Y88.598 E0.79337
G1 X158.402 Y121.342 E0.79192
G1 X158.790 Y121.790 F7200.000
G1 F1080
G1 X125.210 Y121.790 E0.81213
G1 X125.210 Y88.210 E0.81213
G1 X158.790 Y88.210 E0.81213
G1 X158.790 Y121.730 E0.81068
G1 X158.404 Y121.686 F7200.000
G1 F5760
G1 X156.596 Y121.734 E-0.76000
G1 E-0.04000 F2100.00000
G1 X149.143 Y96.483 F7200.000
G1 E0.80000 F2100.00000
G1 F1440
G1 X141.486 Y88.825 E0.26242
G1 X140.936 Y88.825 E0.01331
G1 X148.347 Y96.237 E0.25397
G1 X147.736 Y96.175 E0.01488
G1 X140.387 Y88.825 E0.25186
G1 X139.837 Y88.825 E0.01331
G1 X147.187 Y96.175 E0.25186
G1 X146.637 Y96.175 E0.01331
G1 X139.288 Y88.825 E0.25186
G1 X138.738 Y88.825 E0.01331
G1 X146.088 Y96.175 E0.25186
G1 X145.538 Y96.175 E0.01331
G1 X138.189 Y88.825 E0.25186
G1 X137.639 Y88.825 E0.01331
G1 X144.989 Y96.175 E0.25186
G1 X144.439 Y96.175 E0.01331
G1 X137.090 Y88.825 E0.25186
G1 X136.540 Y88.825 E0.01331
G1 X143.890 Y96.175 E0.25186
G1 X143.340 Y96.175 E0.01331
G1 X135.991 Y88.825 E0.25186
G1 X135.441 Y88.825 E0.01331
G1 X142.791 Y96.175 E0.25186
G1 X142.241 Y96.175 E0.01331
G1 X134.892 Y88.825 E0.25186
G1 X134.342 Y88.825 E0.01331
G1 X141.692 Y96.175 E0.25186
G1 X141.142 Y96.175 E0.01331
G1 X133.793 Y88.825 E0.25186
G1 X133.243 Y88.825 E0.01331
G1 X140.593 Y96.175 E0.25186
G1 X140.043 Y96.175 E0.01331
G1 X132.694 Y88.825 E0.25186
G1 X132.144 Y88.825 E0.01331
G1 X139.494 Y96.175 E0.25186
G1 X138.944 Y96.175 E0.01331
G1 X131.595 Y88.825 E0.25186
G1 X131.045 Y88.825 E0.01331
G1 X138.395 Y96.175 E0.25186
G1 X137.845 Y96.175 E0.01331
G1 X130.496 Y88.825 E0.25186
G1 X129.946 Y88.825 E0.01331
G1 X137.296 Y96.175 E0.25186
G1 X136.746 Y96.175 E0.01331
G1 X129.397 Y88.825 E0.25186
G1 X128.847 Y88.825 E0.01331
G1 X136.197 Y96.175 E0.25186
G1 X135.686 Y96.214 E0.01241
G1 X128.298 Y88.825 E0.25319
G1 X127.748 Y88.825 E0.01331
G1 X135.216 Y96.293 E0.25591
G1 X134.828 Y96.454 E0.01019
G1 X127.199 Y88.825 E0.26142
G1 X126.649 Y88.825 E0.01331
G1 X134.470 Y96.646 E0.26801
G1 X134.160 Y96.885 E0.00950
G1 X126.100 Y88.825 E0.27619
G1 X125.825 Y89.100 E0.00941
G1 X133.885 Y97.160 E0.27619
G1 X133.646 Y97.471 E0.00950
G1 X125.825 Y89.649 E0.26801
G1 X125.825 Y90.199 E0.01331
G1 X133.454 Y97.828 E0.26142
G1 X133.293 Y98.216 E0.01019
G1 X125.825 Y90.748 E0.25591
G1 X125.825 Y91.298 E0.01331
G1 X133.214 Y98.686 E0.25319
G1 X133.175 Y99.197 E0.01241
G1 X125.825 Y91.847 E0.25186
G1 X125.825 Y92.397 E0.01331
G1 X133.175 Y99.747 E0.25186
G1 X133.175 Y100.296 E0.01331
G1 X125.825 Y92.946 E0.25186
G1 X125.825 Y93.496 E0.01331
G1 X133.175 Y100.846 E0.25186
G1 X133.175 Y101.395 E0.01331
G1 X125.825 Y94.045 E0.25186
G1 X125.825 Y94.595 E0.01331
G1 X133.175 Y101.945 E0.25186
G1 X133.175 Y102.494 E0.01331
G1 X125.825 Y95.144 E0.25186
G1 X125.825 Y95.694 E0.01331
G1 X133.175 Y103.044 E0.25186
G1 X133.175 Y103.593 E0.01331
G1 X125.825 Y96.243 E0.25186
G1 X125.825 Y96.793 E0.01331
G1 X133.175 Y104.143 E0.25186
G1 X133.175 Y104.692 E0.01331
G1 X125.825 Y97.342 E0.25186
G1 X125.825 Y97.892 E0.01331
G1 X133.175 Y105.242 E0.25186
G1 X133.175 Y105.791 E0.01331
G1 X125.825 Y98.441 E0.25186
G1 X125.825 Y98.991 E0.01331
G1 X133.175 Y106.340 E0.25186
G1 X133.175 Y106.890 E0.01331
G1 X125.825 Y99.540 E0.25186
G1 X125.825 Y100.090 E0.01331
G1 X133.175 Y107.439 E0.25186
G1 X133.175 Y107.989 E0.01331
G1 X125.825 Y100.639 E0.25186
G1 X125.825 Y101.189 E0.01331
G1 X133.175 Y108.538 E0.25186
G1 X133.175 Y109.088 E0.01331
G1 X125.825 Y101.738 E0.25186
G1 X125.825 Y102.288 E0.01331
G1 X133.175 Y109.637 E0.25186
G1 X133.175 Y110.187 E0.01331
G1 X125.825 Y102.837 E0.25186
G1 X125.825 Y103.387 E0.01331
G1 X133.175 Y110.736 E0.25186
G1 X133.195 Y111.306 E0.01381
G1 X125.825 Y103.936 E0.25254
G1 X125.825 Y104.486 E0.01331
G1 X133.323 Y111.984 E0.25694
G1 F5760
G1 X131.771 Y110.432 E-0.76000
G1 E-0.04000 F2100.00000
G1 X126.030 Y121.175 F7200.000
G1 E0.80000 F2100.00000
G1 F1440
G1 X125.825 Y120.970 E0.00700
G1 X125.825 Y120.421 E0.01331
G1 X126.579 Y121.175 E0.02583
G1 X127.129 Y121.175 E0.01331
G1 X125.825 Y119.871 E0.04466
G1 X125.825 Y119.322 E0.01331
G1 X127.678 Y121.175 E0.06349
G1 X128.228 Y121.175 E0.01331
G1 X125.825 Y118.772 E0.08232
G1 X125.825 Y118.223 E0.01331
G1 X128.777 Y121.175 E0.10115
G1 X129.327 Y121.175 E0.01331
G1 X125.825 Y117.673 E0.11998
G1 X125.825 Y117.124 E0.01331
G1 X129.876 Y121.175 E0.13881
G1 X130.425 Y121.175 E0.01331
G1 X125.825 Y116.575 E0.15764
G1 X125.825 Y116.025 E0.01331
G1 X130.975 Y121.175 E0.17647
G1 X131.524 Y121.175 E0.01331
G1 X125.825 Y115.476 E0.19530
G1 X125.825 Y114.926 E0.01331
G1 X132.074 Y121.175 E0.21413
G1 X132.623 Y121.175 E0.01331
G1 X125.825 Y114.377 E0.23296
G1 X125.825 Y113.827 E0.01331
G1 X133.173 Y121.175 E0.25179
G1 X133.722 Y121.175 E0.01331
G1 X125.825 Y113.278 E0.27062
G1 X125.825 Y112.728 E0.01331
G1 X134.272 Y121.175 E0.28945
G1 X134.821 Y121.175 E0.01331
G1 X125.825 Y112.179 E0.30828
G1 X125.825 Y111.629 E0.01331
G1 X135.371 Y121.175 E0.32711
G1 X135.920 Y121.175 E0.01331
G1 X125.825 Y111.080 E0.34594
G1 X125.825 Y110.530 E0.01331
G1 X136.470 Y121.175 E0.36477
G1 X137.019 Y121.175 E0.01331
G1 X125.825 Y109.981 E0.38360
G1 X125.825 Y109.431 E0.01331
G1 X137.569 Y121.175 E0.40243
G1 X138.118 Y121.175 E0.01331
G1 X125.825 Y108.882 E0.42126
G1 X125.825 Y108.332 E0.01331
G1 X138.668 Y121.175 E0.44009
G1 X139.217 Y121.175 E0.01331
G1 X125.825 Y107.783 E0.45892
G1 X125.825 Y107.233 E0.01331
G1 X139.767 Y121.175 E0.47775
G1 X140.316 Y121.175 E0.01331
G1 X125.825 Y106.684 E0.49658
G1 X125.825 Y106.134 E0.01331
G1 X140.866 Y121.175 E0.51541
G1 X141.415 Y121.175 E0.01331
G1 X125.825 Y105.585 E0.53424
G1 X125.825 Y105.035 E0.01331
G1 X141.965 Y121.175 E0.55307
G1 X142.514 Y121.175 E0.01331
G1 X135.016 Y113.677 E0.25694
G1 X135.694 Y113.805 E0.01671
G1 X143.064 Y121.175 E0.25254
G1 X143.613 Y121.175 E0.01331
G1 X136.264 Y113.825 E0.25186
G1 X136.813 Y113.825 E0.01331
G1 X144.163 Y121.175 E0.25186
G1 X144.712 Y121.175 E0.01331
G1 X137.363 Y113.825 E0.25186
G1 X137.912 Y113.825 E0.01331
G1 X145.262 Y121.175 E0.25186
G1 X145.811 Y121.175 E0.01331
G1 X138.462 Y113.825 E0.25186
G1 X139.011 Y113.825 E0.01331
G1 X146.361 Y121.175 E0.25186
G1 X146.910 Y121.175 E0.01331
G1 X139.561 Y113.825 E0.25186
G1 X140.110 Y113.825 E0.01331
G1 X147.460 Y121.175 E0.25186
G1 X148.009 Y121.175 E0.01331
G1 X140.660 Y113.825 E0.25186
G1 X141.209 Y113.825 E0.01331
G1 X148.559 Y121.175 E0.25186
G1 X149.108 Y121.175 E0.01331
G1 X141.758 Y113.825 E0.25186
G1 X142.308 Y113.825 E0.01331
G1 X149.658 Y121.175 E0.25186
G1 X150.207 Y121.175 E0.01331
G1 X142.857 Y113.825 E0.25186
G1 X143.407 Y113.825 E0.01331
G1 X150.757 Y121.175 E0.25186
G1 X151.306 Y121.175 E0.01331
G1 X143.956 Y113.825 E0.25186
G1 X144.506 Y113.825 E0.01331
G1 X151.856 Y121.175 E0.25186
G1 X152.405 Y121.175 E0.01331
G1 X145.055 Y113.825 E0.25186
G1 X145.605 Y113.825 E0.01331
G1 X152.955 Y121.175 E0.25186
G1 X153.504 Y121.175 E0.01331
G1 X146.154 Y113.825 E0.25186
G1 X146.704 Y113.825 E0.01331
G1 X154.054 Y121.175 E0.25186
G1 X154.603 Y121.175 E0.01331
G1 X147.253 Y113.825 E0.25186
G1 X147.803 Y113.825 E0.01331
G1 X155.153 Y121.175 E0.25186
G1 X155.702 Y121.175 E0.01331
G1 X148.315 Y113.788 E0.25312
G1 X148.784 Y113.707 E0.01152
G1 X156.252 Y121.175 E0.25591
G1 X156.801 Y121.175 E0.01331
G1 X149.172 Y113.546 E0.26142
G1 X149.529 Y113.354 E0.00983
G1 X157.351 Y121.175 E0.26801
G1 X157.900 Y121.175 E0.01331
G1 X149.840 Y113.115 E0.27619
G1 X150.115 Y112.840 E0.00941
G1 X158.175 Y120.900 E0.27619
G1 X158.175 Y120.351 E0.01331
G1 X150.354 Y112.530 E0.26801
G1 X150.546 Y112.172 E0.00983
G1 X158.175 Y119.801 E0.26142
G1 X158.175 Y119.252 E0.01331
G1 X150.707 Y111.784 E0.25591
G1 X150.788 Y111.316 E0.01152
G1 X158.175 Y118.702 E0.25313
G1 X158.175 Y118.153 E0.01331
G1 X150.825 Y110.803 E0.25186
G1 X150.825 Y110.254 E0.01331
G1 X158.175 Y117.603 E0.25186
G1 X158.175 Y117.054 E0.01331
G1 X150.825 Y109.704 E0.25186
G1 X150.825 Y109.155 E0.01331
G1 X158.175 Y116.504 E0.25186
G1 X158.175 Y115.955 E0.01331
G1 X150.825 Y108.605 E0.25186
G1 X150.825 Y108.056 E0.01331
G1 X158.175 Y115.405 E0.25186
G1 X158.175 Y114.856 E0.01331
G1 X150.825 Y107.506 E0.25186
G1 X150.825 Y106.957 E0.01331
G1 X158.175 Y114.306 E0.25186
G1 X158.175 Y113.757 E0.01331
G1 X150.825 Y106.407 E0.25186
G1 X150.825 Y105.858 E0.01331
G1 X158.175 Y113.207 E0.25186
G1 X158.175 Y112.658 E0.01331
G1 X150.825 Y105.308 E0.25186
G1 X150.825 Y104.759 E0.01331
G1 X158.175 Y112.108 E0.25186
G1 X158.175 Y111.559 E0.01331
G1 X150.825 Y104.209 E0.25186
G1 X150.825 Y103.660 E0.01331
G1 X158.175 Y111.009 E0.25186
G1 X158.175 Y110.460 E0.01331
G1 X150.825 Y103.110 E0.25186
G1 X150.825 Y102.561 E0.01331
G1 X158.175 Y109.910 E0.25186
G1 X158.175 Y109.361 E0.01331
G1 X150.825 Y102.011 E0.25186
G1 X150.825 Y101.462 E0.01331
G1 X158.175 Y108.811 E0.25186
G1 X158.175 Y108.262 E0.01331
G1 X150.825 Y100.912 E0.25186
G1 X150.825 Y100.363 E0.01331
G1 X158.175 Y107.712 E0.25186
G1 X158.175 Y107.163 E0.01331
G1 X150.825 Y99.813 E0.25186
G1 X150.825 Y99.264 E0.01331
G1 X158.175 Y106.613 E0.25186
G1 X158.175 Y106.064 E0.01331
G1 X150.759 Y98.648 E0.25412
G1 X150.517 Y97.857 E0.02005
G1 X158.175 Y105.514 E0.26242
G1 X158.175 Y104.965 E0.01331
G1 X142.035 Y88.825 E0.55307
G1 X142.585 Y88.825 E0.01331
G1 X158.175 Y104.415 E0.53424
G1 X158.175 Y103.866 E0.01331
G1 X143.134 Y88.825 E0.51541
G1 X143.684 Y88.825 E0.01331
G1 X158.175 Y103.316 E0.49658
G1 X158.175 Y102.767 E0.01331
G1 X144.233 Y88.825 E0.47775
G1 X144.783 Y88.825 E0.01331
G1 X158.175 Y102.217 E0.45892
G1 X158.175 Y101.668 E0.01331
G1 X145.332 Y88.825 E0.44009
G1 X145.882 Y88.825 E0.01331
G1 X158.175 Y101.118 E0.42126
G1 X158.175 Y100.569 E0.01331
G1 X146.431 Y88.825 E0.40244
G1 X146.980 Y88.825 E0.01331
G1 X158.175 Y100.020 E0.38361
G1 X158.175 Y99.470 E0.01331
G1 X147.530 Y88.825 E0.36478
G1 X148.079 Y88.825 E0.01331
G1 X158.175 Y98.921 E0.34595
G1 X158.175 Y98.371 E0.01331
G1 X148.629 Y88.825 E0.32712
G1 X149.178 Y88.825 E0.01331
G1 X158.175 Y97.822 E0.30829
G1 X158.175 Y97.272 E0.01331
G1 X149.728 Y88.825 E0.28946
G1 X150.277 Y88.825 E0.01331
G1 X158.175 Y96.723 E0.27063
G1 X158.175 Y96.173 E0.01331
G1 X150.827 Y88.825 E0.25180
G1 X151.376 Y88.825 E0.01331
G1 X158.175 Y95.624 E0.23297
G1 X158.175 Y95.074 E0.01331
G1 X151.926 Y88.825 E0.21414
G1 X152.475 Y88.825 E0.01331
G1 X158.175 Y94.525 E0.19531
G1 X158.175 Y93.975 E0.01331
G1 X153.025 Y88.825 E0.17648
G1 X153.574 Y88.825 E0.01331
G1 X158.175 Y93.426 E0.15765
G1 X158.175 Y92.876 E0.01331
G1 X154.124 Y88.825 E0.13882
G1 X154.673 Y88.825 E0.01331
G1 X158.175 Y92.327 E0.11999
G1 X158.175 Y91.777 E0.01331
G1 X155.223 Y88.825 E0.10116
G1 X155.772 Y88.825 E0.01331
G1 X158.175 Y91.228 E0.08233
G1 X158.175 Y90.678 E0.01331
G1 X156.322 Y88.825 E0.06350
G1 X156.871 Y88.825 E0.01331
G1 X158.175 Y90.129 E0.04467
G1 X158.175 Y89.579 E0.01331
G1 X157.421 Y88.825 E0.02584
G1 X157.970 Y88.825 E0.01331
G1 X158.175 Y89.030 E0.00701
G1 F5760
G1 X157.970 Y88.825 E-0.10018
G1 F5760
G1 X157.421 Y88.825 E-0.19032
G1 F5760
G1 X158.175 Y89.579 E-0.36934
G1 F5760
G1 X158.175 Y89.868 E-0.10016
G1 E-0.04000 F2100.00000
G1 Z0.150 F7200.000
G1 X98.936 Y116.052 F7200.000
G1 E0.80000 F2100.00000
G1 F720
