; generated by Slic3r 1.30.0.25-prusa3d-release_candidate_1_3-win64 on 2016-11-09 at 15:24:08

; external perimeters extrusion width = 0.45mm
; perimeters extrusion width = 0.45mm
; infill extrusion width = 0.45mm
; solid infill extrusion width = 0.45mm
; top infill extrusion width = 0.40mm

M107
M115 U3.0.8 ; tell printer latest fw version
M83  ; extruder relative mode
M104 S210 ; set extruder temp
M140 S55 ; set bed temp
M190 S55 ; wait for bed temp
M109 S210 ; wait for extruder temp
G28 W ; home all without mesh bed level
G80 ; mesh bed leveling
G1 Y-3.0 F1000.0 ; go outside pritn area
G1 X60.0 E9.0  F1000.0 ; intro line
G1 X100.0 E12.5  F1000.0 ; intro line
G21 ; set units to millimeters
G90 ; use absolute coordinates
M83 ; use relative distances for extrusion
G1 E-0.80000 F2100.00000
G1 Z0.150 F7200.000
G1 X74.168 Y39.699 F7200.000
G1 E0.80000 F2100.00000
M204 S1000
G1 F1800
G1 X74.480 Y39.160 E0.01507
G1 X74.718 Y38.849 E0.00947
G1 X75.159 Y38.408 E0.01507
G1 X75.470 Y38.170 E0.00947
G1 X76.010 Y37.858 E0.01507
G1 X76.372 Y37.708 E0.00947
G1 X76.974 Y37.547 E0.01507
G1 X77.674 Y37.475 E0.01702
G1 X179.674 Y37.475 E2.46686
G1 X180.373 Y37.547 E0.01702
G1 X180.975 Y37.708 E0.01507
G1 X181.337 Y37.858 E0.00947
G1 X181.892 Y38.182 E0.01554
G1 X182.188 Y38.408 E0.00900
G1 X182.629 Y38.849 E0.01508
G1 X182.867 Y39.160 E0.00947
G1 X183.178 Y39.699 E0.01507
G1 X183.328 Y40.061 E0.00948
G1 X183.490 Y40.663 E0.01507
G1 X183.561 Y41.363 E0.01702
G1 X183.561 Y76.400 E0.84737
G1 X182.408 Y150.832 E1.80034
G1 X182.084 Y151.997 E0.02925
G1 X181.995 Y152.150 E0.00428
G1 X181.620 Y152.636 E0.01485
G1 X181.335 Y152.921 E0.00974
G1 X179.916 Y153.605 E0.03809
G1 X179.574 Y153.629 E0.00829
G1 X77.580 Y153.629 E2.46671
G1 X77.239 Y153.605 E0.00829
G1 X75.820 Y152.921 E0.03809
G1 X75.535 Y152.636 E0.00974
G1 X75.160 Y152.150 E0.01485
G1 X75.071 Y151.997 E0.00428
G1 X74.747 Y150.826 E0.02939
G1 X73.786 Y76.394 E1.80028
G1 X73.786 Y41.363 E0.84722
G1 X73.857 Y40.663 E0.01702
G1 X74.019 Y40.061 E0.01507
G1 X74.145 Y39.755 E0.00802
G1 F5760
G1 X74.480 Y39.160 E-0.23649
G1 F5760
G1 X74.707 Y38.865 E-0.12884
G1 F5760
G1 X74.707 Y38.865 E-0.00002
G1 F5760
G1 X74.718 Y38.849 E-0.00678
G1 F5760
G1 X75.159 Y38.408 E-0.21589
G1 F5760
G1 X75.454 Y38.182 E-0.12884
G1 F5760
G1 X75.454 Y38.182 E-0.00006
G1 F5760
G1 X75.470 Y38.170 E-0.00678
G1 F5760
G1 X75.561 Y38.117 E-0.03631
G1 E-0.04000 F2100.00000
G1 X135.232 Y102.888 F7200.000
G1 E0.80000 F2100.00000
G1 F1440
G1 X134.973 Y103.513 E0.01636
G1 X134.560 Y104.052 E0.01643
G1 X134.004 Y104.470 E0.01681
G1 X133.400 Y104.720 E0.01582
G1 X132.768 Y104.803 E0.01540
G1 X120.621 Y104.803 E0.29379
G1 X120.001 Y104.722 E0.01512
G1 X119.387 Y104.467 E0.01607
G1 X118.860 Y104.063 E0.01607
G1 X118.455 Y103.536 E0.01607
G1 X118.201 Y102.922 E0.01607
G1 X118.119 Y102.302 E0.01512
G1 X118.119 Y90.429 E0.28714
G1 X118.212 Y89.727 E0.01714
G1 X118.489 Y89.058 E0.01749
G1 X118.951 Y88.444 E0.01861
G1 X119.547 Y87.986 E0.01816
G1 X120.215 Y87.710 E0.01749
G1 X120.938 Y87.608 E0.01765
G1 X132.814 Y87.608 E0.28721
G1 X133.433 Y87.689 E0.01512
G1 X134.047 Y87.944 E0.01607
G1 X134.575 Y88.348 E0.01607
G1 X134.979 Y88.875 E0.01607
G1 X135.233 Y89.489 E0.01607
G1 X135.315 Y90.109 E0.01512
G1 X135.315 Y102.257 E0.29379
G1 X135.240 Y102.829 E0.01395
G1 X134.854 Y102.787 F7200.000
G1 F1080
G1 X134.634 Y103.317 E0.01389
G1 X134.284 Y103.774 E0.01391
G1 X133.810 Y104.130 E0.01434
G1 X133.299 Y104.342 E0.01339
G1 X132.743 Y104.415 E0.01355
G1 X120.646 Y104.415 E0.29256
G1 X120.102 Y104.344 E0.01327
G1 X119.583 Y104.129 E0.01360
G1 X119.136 Y103.786 E0.01360
G1 X118.794 Y103.340 E0.01360
G1 X118.579 Y102.820 E0.01360
G1 X118.507 Y102.276 E0.01327
G1 X118.507 Y90.454 E0.28591
G1 X118.590 Y89.828 E0.01529
G1 X118.828 Y89.252 E0.01506
G1 X119.229 Y88.719 E0.01614
G1 X119.743 Y88.325 E0.01565
G1 X120.318 Y88.087 E0.01506
G1 X120.965 Y87.995 E0.01581
G1 X132.788 Y87.995 E0.28594
G1 X133.332 Y88.067 E0.01327
G1 X133.852 Y88.282 E0.01360
G1 X134.298 Y88.625 E0.01360
G1 X134.640 Y89.071 E0.01360
G1 X134.856 Y89.591 E0.01360
G1 X134.927 Y90.134 E0.01327
G1 X134.927 Y102.231 E0.29256
G1 X134.862 Y102.727 E0.01210
G1 X135.136 Y103.070 F7200.000
G1 F5760
G1 X134.634 Y103.317 E-0.21904
G1 F5760
G1 X134.284 Y103.774 E-0.19925
G1 F5760
G1 X133.810 Y104.130 E-0.20542
G1 F5760
G1 X133.447 Y104.281 E-0.13630
G1 E-0.04000 F2100.00000
G1 X143.119 Y112.608 F7200.000
G1 E0.80000 F2100.00000
G1 F1440
G1 X110.315 Y112.608 E0.79337
G1 X110.315 Y79.803 E0.79337
G1 X143.119 Y79.803 E0.79337
G1 X143.119 Y112.548 E0.79192
G1 X143.507 Y112.995 F7200.000
G1 F1080
G1 X109.927 Y112.995 E0.81213
G1 X109.927 Y79.415 E0.81213
G1 X143.507 Y79.415 E0.81213
G1 X143.507 Y112.935 E0.81068
G1 X143.121 Y112.892 F7200.000
G1 F5760
G1 X141.313 Y112.939 E-0.76000
G1 E-0.04000 F2100.00000
G1 X133.674 Y87.502 F7200.000
G1 E0.80000 F2100.00000
G1 F1440
G1 X126.203 Y80.031 E0.25603
G1 X125.653 Y80.031 E0.01331
G1 X133.016 Y87.393 E0.25231
G1 X132.453 Y87.380 E0.01364
G1 X125.104 Y80.031 E0.25186
G1 X124.554 Y80.031 E0.01331
G1 X131.904 Y87.380 E0.25186
G1 X131.354 Y87.380 E0.01331
G1 X124.005 Y80.031 E0.25186
G1 X123.455 Y80.031 E0.01331
G1 X130.805 Y87.380 E0.25186
G1 X130.255 Y87.380 E0.01331
G1 X122.906 Y80.031 E0.25186
G1 X122.356 Y80.031 E0.01331
G1 X129.706 Y87.380 E0.25186
G1 X129.157 Y87.380 E0.01331
G1 X121.807 Y80.031 E0.25186
G1 X121.257 Y80.031 E0.01331
G1 X128.607 Y87.380 E0.25186
G1 X128.058 Y87.380 E0.01331
G1 X120.708 Y80.031 E0.25186
G1 X120.158 Y80.031 E0.01331
G1 X127.508 Y87.380 E0.25186
G1 X126.959 Y87.380 E0.01331
G1 X119.609 Y80.031 E0.25186
G1 X119.059 Y80.031 E0.01331
G1 X126.409 Y87.380 E0.25186
G1 X125.860 Y87.380 E0.01331
G1 X118.510 Y80.031 E0.25186
G1 X117.960 Y80.031 E0.01331
G1 X125.310 Y87.380 E0.25186
G1 X124.761 Y87.380 E0.01331
G1 X117.411 Y80.031 E0.25186
G1 X116.861 Y80.031 E0.01331
G1 X124.211 Y87.380 E0.25186
G1 X123.662 Y87.380 E0.01331
G1 X116.312 Y80.031 E0.25186
G1 X115.762 Y80.031 E0.01331
G1 X123.112 Y87.380 E0.25186
G1 X122.563 Y87.380 E0.01331
G1 X115.213 Y80.031 E0.25186
G1 X114.663 Y80.031 E0.01331
G1 X122.013 Y87.380 E0.25186
G1 X121.464 Y87.380 E0.01331
G1 X114.114 Y80.031 E0.25186
G1 X113.564 Y80.031 E0.01331
G1 X120.925 Y87.391 E0.25221
G1 X120.443 Y87.459 E0.01178
G1 X113.015 Y80.031 E0.25454
G1 X112.465 Y80.031 E0.01331
G1 X120.011 Y87.576 E0.25855
G1 X119.622 Y87.737 E0.01019
G1 X111.916 Y80.031 E0.26407
G1 X111.367 Y80.031 E0.01331
G1 X119.281 Y87.945 E0.27122
G1 X118.970 Y88.184 E0.00950
G1 X110.817 Y80.031 E0.27940
G1 X110.542 Y80.305 E0.00941
G1 X118.696 Y88.459 E0.27941
G1 X118.460 Y88.773 E0.00951
G1 X110.542 Y80.855 E0.27133
G1 X110.542 Y81.404 E0.01331
G1 X118.248 Y89.110 E0.26407
G1 X118.087 Y89.499 E0.01019
G1 X110.542 Y81.954 E0.25855
G1 X110.542 Y82.503 E0.01331
G1 X117.966 Y89.927 E0.25440
G1 X117.902 Y90.413 E0.01187
G1 X110.542 Y83.053 E0.25221
G1 X110.542 Y83.602 E0.01331
G1 X117.892 Y90.952 E0.25186
G1 X117.892 Y91.502 E0.01331
G1 X110.542 Y84.152 E0.25186
G1 X110.542 Y84.701 E0.01331
G1 X117.892 Y92.051 E0.25186
G1 X117.892 Y92.601 E0.01331
G1 X110.542 Y85.251 E0.25186
G1 X110.542 Y85.800 E0.01331
G1 X117.892 Y93.150 E0.25186
G1 X117.892 Y93.700 E0.01331
G1 X110.542 Y86.350 E0.25186
G1 X110.542 Y86.899 E0.01331
G1 X117.892 Y94.249 E0.25186
G1 X117.892 Y94.799 E0.01331
G1 X110.542 Y87.449 E0.25186
G1 X110.542 Y87.998 E0.01331
G1 X117.892 Y95.348 E0.25186
G1 X117.892 Y95.897 E0.01331
G1 X110.542 Y88.548 E0.25186
G1 X110.542 Y89.097 E0.01331
G1 X117.892 Y96.447 E0.25186
G1 X117.892 Y96.996 E0.01331
G1 X110.542 Y89.647 E0.25186
G1 X110.542 Y90.196 E0.01331
G1 X117.892 Y97.546 E0.25186
G1 X117.892 Y98.095 E0.01331
G1 X110.542 Y90.746 E0.25186
G1 X110.542 Y91.295 E0.01331
G1 X117.892 Y98.645 E0.25186
G1 X117.892 Y99.194 E0.01331
G1 X110.542 Y91.845 E0.25186
G1 X110.542 Y92.394 E0.01331
G1 X117.892 Y99.744 E0.25186
G1 X117.892 Y100.293 E0.01331
G1 X110.542 Y92.944 E0.25186
G1 X110.542 Y93.493 E0.01331
G1 X117.892 Y100.843 E0.25186
G1 X117.892 Y101.392 E0.01331
G1 X110.542 Y94.043 E0.25186
G1 X110.542 Y94.592 E0.01331
G1 X117.892 Y101.942 E0.25186
G1 X117.905 Y102.505 E0.01364
G1 X110.542 Y95.142 E0.25231
G1 X110.542 Y95.691 E0.01331
G1 X118.014 Y103.163 E0.25603
G1 F5760
G1 X116.462 Y101.611 E-0.76000
G1 E-0.04000 F2100.00000
G1 X110.747 Y112.380 F7200.000
G1 E0.80000 F2100.00000
G1 F1440
G1 X110.542 Y112.176 E0.00700
G1 X110.542 Y111.626 E0.01331
G1 X111.296 Y112.380 E0.02583
G1 X111.846 Y112.380 E0.01331
G1 X110.542 Y111.077 E0.04466
G1 X110.542 Y110.527 E0.01331
G1 X112.395 Y112.380 E0.06349
G1 X112.945 Y112.380 E0.01331
G1 X110.542 Y109.978 E0.08232
G1 X110.542 Y109.428 E0.01331
G1 X113.494 Y112.380 E0.10115
G1 X114.044 Y112.380 E0.01331
G1 X110.542 Y108.879 E0.11998
G1 X110.542 Y108.329 E0.01331
G1 X114.593 Y112.380 E0.13881
G1 X115.143 Y112.380 E0.01331
G1 X110.542 Y107.780 E0.15764
G1 X110.542 Y107.230 E0.01331
G1 X115.692 Y112.380 E0.17647
G1 X116.242 Y112.380 E0.01331
G1 X110.542 Y106.681 E0.19530
G1 X110.542 Y106.132 E0.01331
G1 X116.791 Y112.380 E0.21413
G1 X117.341 Y112.380 E0.01331
G1 X110.542 Y105.582 E0.23296
G1 X110.542 Y105.033 E0.01331
G1 X117.890 Y112.380 E0.25179
G1 X118.440 Y112.380 E0.01331
G1 X110.542 Y104.483 E0.27062
G1 X110.542 Y103.934 E0.01331
G1 X118.989 Y112.380 E0.28945
G1 X119.539 Y112.380 E0.01331
G1 X110.542 Y103.384 E0.30828
G1 X110.542 Y102.835 E0.01331
G1 X120.088 Y112.380 E0.32711
G1 X120.638 Y112.380 E0.01331
G1 X110.542 Y102.285 E0.34594
G1 X110.542 Y101.736 E0.01331
G1 X121.187 Y112.380 E0.36477
G1 X121.737 Y112.380 E0.01331
G1 X110.542 Y101.186 E0.38360
G1 X110.542 Y100.637 E0.01331
G1 X122.286 Y112.380 E0.40243
G1 X122.836 Y112.380 E0.01331
G1 X110.542 Y100.087 E0.42126
G1 X110.542 Y99.538 E0.01331
G1 X123.385 Y112.380 E0.44009
G1 X123.935 Y112.380 E0.01331
G1 X110.542 Y98.988 E0.45892
G1 X110.542 Y98.439 E0.01331
G1 X124.484 Y112.380 E0.47775
G1 X125.033 Y112.380 E0.01331
G1 X110.542 Y97.889 E0.49658
G1 X110.542 Y97.340 E0.01331
G1 X125.583 Y112.380 E0.51541
G1 X126.132 Y112.380 E0.01331
G1 X110.542 Y96.790 E0.53424
G1 X110.542 Y96.241 E0.01331
G1 X126.682 Y112.380 E0.55307
G1 X127.231 Y112.380 E0.01331
G1 X119.760 Y104.909 E0.25603
G1 X120.418 Y105.017 E0.01616
G1 X127.781 Y112.380 E0.25231
G1 X128.330 Y112.380 E0.01331
G1 X120.981 Y105.031 E0.25186
G1 X121.530 Y105.031 E0.01331
G1 X128.880 Y112.380 E0.25186
G1 X129.429 Y112.380 E0.01331
G1 X122.080 Y105.031 E0.25186
G1 X122.629 Y105.031 E0.01331
G1 X129.979 Y112.380 E0.25186
G1 X130.528 Y112.380 E0.01331
G1 X123.179 Y105.031 E0.25186
G1 X123.728 Y105.031 E0.01331
G1 X131.078 Y112.380 E0.25186
G1 X131.627 Y112.380 E0.01331
G1 X124.278 Y105.031 E0.25186
G1 X124.827 Y105.031 E0.01331
G1 X132.177 Y112.380 E0.25186
G1 X132.726 Y112.380 E0.01331
G1 X125.377 Y105.031 E0.25186
G1 X125.926 Y105.031 E0.01331
G1 X133.276 Y112.380 E0.25186
G1 X133.825 Y112.380 E0.01331
G1 X126.476 Y105.031 E0.25186
G1 X127.025 Y105.031 E0.01331
G1 X134.375 Y112.380 E0.25186
G1 X134.924 Y112.380 E0.01331
G1 X127.575 Y105.031 E0.25186
G1 X128.124 Y105.031 E0.01331
G1 X135.474 Y112.380 E0.25186
G1 X136.023 Y112.380 E0.01331
G1 X128.674 Y105.031 E0.25186
G1 X129.223 Y105.031 E0.01331
G1 X136.573 Y112.380 E0.25186
G1 X137.122 Y112.380 E0.01331
G1 X129.773 Y105.031 E0.25186
G1 X130.322 Y105.031 E0.01331
G1 X137.672 Y112.380 E0.25186
G1 X138.221 Y112.380 E0.01331
G1 X130.872 Y105.031 E0.25186
G1 X131.421 Y105.031 E0.01331
G1 X138.771 Y112.380 E0.25186
G1 X139.320 Y112.380 E0.01331
G1 X131.971 Y105.031 E0.25186
G1 X132.520 Y105.031 E0.01331
G1 X139.870 Y112.380 E0.25186
G1 X140.419 Y112.380 E0.01331
G1 X133.027 Y104.988 E0.25331
G1 X133.490 Y104.902 E0.01141
G1 X140.969 Y112.380 E0.25628
G1 X141.518 Y112.380 E0.01331
G1 X133.879 Y104.741 E0.26180
G1 X134.230 Y104.543 E0.00978
G1 X142.068 Y112.380 E0.26857
G1 X142.617 Y112.380 E0.01331
G1 X134.544 Y104.307 E0.27666
G1 X134.819 Y104.033 E0.00941
G1 X142.892 Y112.106 E0.27664
G1 X142.892 Y111.556 E0.01331
G1 X135.058 Y103.722 E0.26847
G1 X135.252 Y103.367 E0.00981
G1 X142.892 Y111.007 E0.26180
G1 X142.892 Y110.457 E0.01331
G1 X135.413 Y102.978 E0.25628
G1 X135.500 Y102.516 E0.01141
G1 X142.892 Y109.908 E0.25331
G1 X142.892 Y109.358 E0.01331
G1 X135.542 Y102.008 E0.25186
G1 X135.542 Y101.459 E0.01331
G1 X142.892 Y108.809 E0.25186
G1 X142.892 Y108.259 E0.01331
G1 X135.542 Y100.910 E0.25186
G1 X135.542 Y100.360 E0.01331
G1 X142.892 Y107.710 E0.25186
G1 X142.892 Y107.160 E0.01331
G1 X135.542 Y99.811 E0.25186
G1 X135.542 Y99.261 E0.01331
G1 X142.892 Y106.611 E0.25186
G1 X142.892 Y106.061 E0.01331
G1 X135.542 Y98.712 E0.25186
G1 X135.542 Y98.162 E0.01331
G1 X142.892 Y105.512 E0.25186
G1 X142.892 Y104.962 E0.01331
G1 X135.542 Y97.613 E0.25186
G1 X135.542 Y97.063 E0.01331
G1 X142.892 Y104.413 E0.25186
G1 X142.892 Y103.863 E0.01331
G1 X135.542 Y96.514 E0.25186
G1 X135.542 Y95.964 E0.01331
G1 X142.892 Y103.314 E0.25186
G1 X142.892 Y102.764 E0.01331
G1 X135.542 Y95.415 E0.25186
G1 X135.542 Y94.865 E0.01331
G1 X142.892 Y102.215 E0.25186
G1 X142.892 Y101.665 E0.01331
G1 X135.542 Y94.316 E0.25186
G1 X135.542 Y93.766 E0.01331
G1 X142.892 Y101.116 E0.25186
G1 X142.892 Y100.566 E0.01331
G1 X135.542 Y93.217 E0.25186
G1 X135.542 Y92.667 E0.01331
G1 X142.892 Y100.017 E0.25186
G1 X142.892 Y99.467 E0.01331
G1 X135.542 Y92.118 E0.25186
G1 X135.542 Y91.568 E0.01331
G1 X142.892 Y98.918 E0.25186
G1 X142.892 Y98.368 E0.01331
G1 X135.542 Y91.019 E0.25186
G1 X135.542 Y90.469 E0.01331
G1 X142.892 Y97.819 E0.25186
G1 X142.892 Y97.269 E0.01331
G1 X135.529 Y89.907 E0.25231
G1 X135.421 Y89.248 E0.01616
G1 X142.892 Y96.720 E0.25603
G1 X142.892 Y96.170 E0.01331
G1 X126.752 Y80.031 E0.55307
G1 X127.302 Y80.031 E0.01331
G1 X142.892 Y95.621 E0.53424
G1 X142.892 Y95.071 E0.01331
G1 X127.851 Y80.031 E0.51541
G1 X128.401 Y80.031 E0.01331
G1 X142.892 Y94.522 E0.49658
G1 X142.892 Y93.972 E0.01331
G1 X128.950 Y80.031 E0.47775
G1 X129.500 Y80.031 E0.01331
G1 X142.892 Y93.423 E0.45892
G1 X142.892 Y92.873 E0.01331
G1 X130.049 Y80.031 E0.44009
G1 X130.599 Y80.031 E0.01331
G1 X142.892 Y92.324 E0.42126
G1 X142.892 Y91.774 E0.01331
G1 X131.148 Y80.031 E0.40244
G1 X131.698 Y80.031 E0.01331
G1 X142.892 Y91.225 E0.38361
G1 X142.892 Y90.675 E0.01331
G1 X132.247 Y80.031 E0.36478
G1 X132.797 Y80.031 E0.01331
G1 X142.892 Y90.126 E0.34595
G1 X142.892 Y89.577 E0.01331
G1 X133.346 Y80.031 E0.32712
G1 X133.896 Y80.031 E0.01331
G1 X142.892 Y89.027 E0.30829
G1 X142.892 Y88.478 E0.01331
G1 X134.445 Y80.031 E0.28946
G1 X134.995 Y80.031 E0.01331
G1 X142.892 Y87.928 E0.27063
G1 X142.892 Y87.379 E0.01331
G1 X135.544 Y80.031 E0.25180
G1 X136.094 Y80.031 E0.01331
G1 X142.892 Y86.829 E0.23297
G1 X142.892 Y86.280 E0.01331
G1 X136.643 Y80.031 E0.21414
G1 X137.193 Y80.031 E0.01331
G1 X142.892 Y85.730 E0.19531
G1 X142.892 Y85.181 E0.01331
G1 X137.742 Y80.031 E0.17648
G1 X138.292 Y80.031 E0.01331
G1 X142.892 Y84.631 E0.15765
G1 X142.892 Y84.082 E0.01331
G1 X138.841 Y80.031 E0.13882
G1 X139.391 Y80.031 E0.01331
G1 X142.892 Y83.532 E0.11999
G1 X142.892 Y82.983 E0.01331
G1 X139.940 Y80.031 E0.10116
G1 X140.490 Y80.031 E0.01331
G1 X142.892 Y82.433 E0.08233
G1 X142.892 Y81.884 E0.01331
G1 X141.039 Y80.031 E0.06350
G1 X141.588 Y80.031 E0.01331
G1 X142.892 Y81.334 E0.04467
G1 X142.892 Y80.785 E0.01331
G1 X142.138 Y80.031 E0.02584
G1 X142.687 Y80.031 E0.01331
G1 X142.892 Y80.235 E0.00701
G1 F5760
G1 X142.687 Y80.031 E-0.10018
G1 F5760
G1 X142.138 Y80.031 E-0.19032
G1 F5760
G1 X142.892 Y80.785 E-0.36934
G1 F5760
