; generated by Slic3r 1.30.0.25-prusa3d-release_candidate_1_3-win64 on 2016-11-10 at 12:04:08

; external perimeters extrusion width = 0.45mm
; perimeters extrusion width = 0.45mm
; infill extrusion width = 0.45mm
; solid infill extrusion width = 0.45mm
; top infill extrusion width = 0.40mm

M107
M115 U3.0.8 ; tell printer latest fw version
M83  ; extruder relative mode
M104 S210 ; set extruder temp
M140 S55 ; set bed temp
M190 S55 ; wait for bed temp
M109 S210 ; wait for extruder temp
G28 W ; home all without mesh bed level
G80 ; mesh bed leveling
G1 Y-3.0 F1000.0 ; go outside pritn area
G1 X60.0 E9.0  F1000.0 ; intro line
G1 X100.0 E12.5  F1000.0 ; intro line
G21 ; set units to millimeters
G90 ; use absolute coordinates
M83 ; use relative distances for extrusion
G1 E-0.80000 F2100.00000
G1 Z0.150 F7200.000
G1 X71.863 Y31.542 F7200.000
G1 E0.80000 F2100.00000
M204 S1000
G1 F1800
G1 X72.174 Y31.002 E0.01507
G1 X72.413 Y30.692 E0.00947
G1 X72.853 Y30.251 E0.01507
G1 X73.164 Y30.012 E0.00947
G1 X73.704 Y29.701 E0.01507
G1 X74.066 Y29.551 E0.00947
G1 X74.668 Y29.390 E0.01507
G1 X75.368 Y29.318 E0.01702
G1 X177.368 Y29.318 E2.46686
G1 X178.068 Y29.390 E0.01702
G1 X178.670 Y29.551 E0.01507
G1 X179.031 Y29.701 E0.00947
G1 X179.587 Y30.024 E0.01554
G1 X179.882 Y30.251 E0.00900
G1 X180.323 Y30.692 E0.01508
G1 X180.561 Y31.002 E0.00947
G1 X180.873 Y31.542 E0.01507
G1 X181.023 Y31.904 E0.00948
G1 X181.184 Y32.506 E0.01507
G1 X181.255 Y33.206 E0.01702
G1 X181.255 Y68.216 E0.84672
G1 X181.094 Y105.848 E0.91014
G1 X180.198 Y144.949 E0.94590
G1 X179.874 Y146.097 E0.02883
G1 X179.785 Y146.250 E0.00428
G1 X179.410 Y146.736 E0.01485
G1 X179.125 Y147.021 E0.00974
G1 X177.706 Y147.705 E0.03809
G1 X177.365 Y147.728 E0.00829
G1 X75.371 Y147.728 E2.46671
G1 X75.029 Y147.705 E0.00829
G1 X73.610 Y147.021 E0.03809
G1 X73.325 Y146.736 E0.00974
G1 X72.951 Y146.250 E0.01485
G1 X72.862 Y146.097 E0.00428
G1 X72.538 Y144.956 E0.02869
G1 X71.546 Y106.056 E0.94110
G1 X71.480 Y68.210 E0.91529
G1 X71.480 Y33.206 E0.84657
G1 X71.551 Y32.506 E0.01702
G1 X71.713 Y31.904 E0.01507
G1 X71.840 Y31.597 E0.00802
G1 F5760
G1 X72.174 Y31.002 E-0.23649
G1 F5760
G1 X72.401 Y30.707 E-0.12884
G1 F5760
G1 X72.401 Y30.707 E-0.00002
G1 F5760
G1 X72.413 Y30.692 E-0.00678
G1 F5760
G1 X72.853 Y30.251 E-0.21589
G1 F5760
G1 X73.149 Y30.024 E-0.12884
G1 F5760
G1 X73.149 Y30.024 E-0.00006
G1 F5760
G1 X73.164 Y30.012 E-0.00678
G1 F5760
G1 X73.255 Y29.960 E-0.03631
G1 E-0.04000 F2100.00000
G1 X170.222 Y95.554 F7200.000
G1 E0.80000 F2100.00000
G1 F1440
G1 X169.968 Y96.168 E0.01607
G1 X169.563 Y96.696 E0.01607
G1 X169.036 Y97.100 E0.01607
G1 X168.422 Y97.354 E0.01607
G1 X167.802 Y97.436 E0.01512
G1 X155.655 Y97.436 E0.29379
G1 X155.023 Y97.353 E0.01540
G1 X154.398 Y97.094 E0.01636
G1 X153.862 Y96.682 E0.01636
G1 X153.450 Y96.146 E0.01636
G1 X153.191 Y95.521 E0.01636
G1 X153.108 Y94.889 E0.01540
G1 X153.108 Y82.739 E0.29386
G1 X153.198 Y82.102 E0.01556
G1 X153.444 Y81.508 E0.01554
G1 X153.849 Y80.981 E0.01607
G1 X154.376 Y80.576 E0.01607
G1 X154.970 Y80.330 E0.01554
G1 X155.607 Y80.240 E0.01556
G1 X167.482 Y80.240 E0.28721
G1 X168.185 Y80.333 E0.01714
G1 X168.876 Y80.619 E0.01809
G1 X169.470 Y81.075 E0.01809
G1 X169.925 Y81.668 E0.01809
G1 X170.202 Y82.336 E0.01749
G1 X170.304 Y83.059 E0.01765
G1 X170.304 Y94.935 E0.28721
G1 X170.230 Y95.495 E0.01367
G1 X169.844 Y95.453 F7200.000
G1 F1080
G1 X169.629 Y95.973 E0.01360
G1 X169.287 Y96.419 E0.01360
G1 X168.840 Y96.761 E0.01360
G1 X168.321 Y96.977 E0.01360
G1 X167.777 Y97.048 E0.01327
G1 X155.680 Y97.048 E0.29256
G1 X155.125 Y96.975 E0.01355
G1 X154.594 Y96.755 E0.01389
G1 X154.138 Y96.406 E0.01389
G1 X153.789 Y95.950 E0.01389
G1 X153.569 Y95.420 E0.01389
G1 X153.496 Y94.864 E0.01355
G1 X153.496 Y82.766 E0.29258
G1 X153.575 Y82.205 E0.01371
G1 X153.783 Y81.704 E0.01312
G1 X154.125 Y81.257 E0.01360
G1 X154.571 Y80.915 E0.01360
G1 X155.072 Y80.707 E0.01312
G1 X155.634 Y80.628 E0.01371
G1 X167.457 Y80.628 E0.28594
G1 X168.084 Y80.711 E0.01529
G1 X168.680 Y80.958 E0.01562
G1 X169.193 Y81.351 E0.01562
G1 X169.586 Y81.864 E0.01562
G1 X169.825 Y82.439 E0.01506
G1 X169.916 Y83.086 E0.01581
G1 X169.916 Y94.909 E0.28594
G1 X169.852 Y95.394 E0.01182
G1 X170.127 Y95.737 F7200.000
G1 F5760
G1 X169.629 Y95.973 E-0.21495
G1 F5760
G1 X169.287 Y96.419 E-0.19481
G1 F5760
G1 X168.840 Y96.761 E-0.19481
G1 F5760
G1 X168.426 Y96.933 E-0.15544
G1 E-0.04000 F2100.00000
G1 X178.108 Y105.240 F7200.000
G1 E0.80000 F2100.00000
G1 F1440
G1 X145.304 Y105.240 E0.79337
G1 X145.304 Y72.436 E0.79337
G1 X178.108 Y72.436 E0.79337
G1 X178.108 Y105.180 E0.79192
G1 X178.496 Y105.628 F7200.000
G1 F1080
G1 X144.916 Y105.628 E0.81213
G1 X144.916 Y72.048 E0.81213
G1 X178.496 Y72.048 E0.81213
G1 X178.496 Y105.568 E0.81068
G1 X178.110 Y105.525 F7200.000
G1 F5760
G1 X176.302 Y105.572 E-0.76000
G1 E-0.04000 F2100.00000
G1 X168.849 Y80.321 F7200.000
G1 E0.80000 F2100.00000
G1 F1440
G1 X161.191 Y72.663 E0.26242
G1 X160.642 Y72.663 E0.01331
G1 X168.053 Y80.075 E0.25397
G1 X167.442 Y80.013 E0.01488
G1 X160.092 Y72.663 E0.25186
G1 X159.543 Y72.663 E0.01331
G1 X166.893 Y80.013 E0.25186
G1 X166.343 Y80.013 E0.01331
G1 X158.994 Y72.663 E0.25186
G1 X158.444 Y72.663 E0.01331
G1 X165.794 Y80.013 E0.25186
G1 X165.244 Y80.013 E0.01331
G1 X157.895 Y72.663 E0.25186
G1 X157.345 Y72.663 E0.01331
G1 X164.695 Y80.013 E0.25186
G1 X164.145 Y80.013 E0.01331
G1 X156.796 Y72.663 E0.25186
G1 X156.246 Y72.663 E0.01331
G1 X163.596 Y80.013 E0.25186
G1 X163.046 Y80.013 E0.01331
G1 X155.697 Y72.663 E0.25186
G1 X155.147 Y72.663 E0.01331
G1 X162.497 Y80.013 E0.25186
G1 X161.947 Y80.013 E0.01331
G1 X154.598 Y72.663 E0.25186
G1 X154.048 Y72.663 E0.01331
G1 X161.398 Y80.013 E0.25186
G1 X160.848 Y80.013 E0.01331
G1 X153.499 Y72.663 E0.25186
G1 X152.949 Y72.663 E0.01331
G1 X160.299 Y80.013 E0.25186
G1 X159.749 Y80.013 E0.01331
G1 X152.400 Y72.663 E0.25186
G1 X151.850 Y72.663 E0.01331
G1 X159.200 Y80.013 E0.25186
G1 X158.650 Y80.013 E0.01331
G1 X151.301 Y72.663 E0.25186
G1 X150.751 Y72.663 E0.01331
G1 X158.101 Y80.013 E0.25186
G1 X157.551 Y80.013 E0.01331
G1 X150.202 Y72.663 E0.25186
G1 X149.652 Y72.663 E0.01331
G1 X157.002 Y80.013 E0.25186
G1 X156.452 Y80.013 E0.01331
G1 X149.103 Y72.663 E0.25186
G1 X148.553 Y72.663 E0.01331
G1 X155.903 Y80.013 E0.25186
G1 X155.392 Y80.052 E0.01241
G1 X148.004 Y72.663 E0.25319
G1 X147.454 Y72.663 E0.01331
G1 X154.922 Y80.131 E0.25591
G1 X154.534 Y80.292 E0.01019
G1 X146.905 Y72.663 E0.26142
G1 X146.355 Y72.663 E0.01331
G1 X154.176 Y80.484 E0.26801
G1 X153.865 Y80.723 E0.00950
G1 X145.806 Y72.663 E0.27619
G1 X145.531 Y72.938 E0.00941
G1 X153.591 Y80.998 E0.27619
G1 X153.352 Y81.309 E0.00950
G1 X145.531 Y73.488 E0.26801
G1 X145.531 Y74.037 E0.01331
G1 X153.160 Y81.666 E0.26142
G1 X152.999 Y82.054 E0.01019
G1 X145.531 Y74.587 E0.25591
G1 X145.531 Y75.136 E0.01331
G1 X152.920 Y82.525 E0.25319
G1 X152.881 Y83.035 E0.01241
G1 X145.531 Y75.686 E0.25186
G1 X145.531 Y76.235 E0.01331
G1 X152.881 Y83.585 E0.25186
G1 X152.881 Y84.134 E0.01331
G1 X145.531 Y76.785 E0.25186
G1 X145.531 Y77.334 E0.01331
G1 X152.881 Y84.684 E0.25186
G1 X152.881 Y85.233 E0.01331
G1 X145.531 Y77.884 E0.25186
G1 X145.531 Y78.433 E0.01331
G1 X152.881 Y85.783 E0.25186
G1 X152.881 Y86.332 E0.01331
G1 X145.531 Y78.983 E0.25186
G1 X145.531 Y79.532 E0.01331
G1 X152.881 Y86.882 E0.25186
G1 X152.881 Y87.431 E0.01331
G1 X145.531 Y80.082 E0.25186
G1 X145.531 Y80.631 E0.01331
G1 X152.881 Y87.981 E0.25186
G1 X152.881 Y88.530 E0.01331
G1 X145.531 Y81.181 E0.25186
G1 X145.531 Y81.730 E0.01331
G1 X152.881 Y89.080 E0.25186
G1 X152.881 Y89.629 E0.01331
G1 X145.531 Y82.280 E0.25186
G1 X145.531 Y82.829 E0.01331
G1 X152.881 Y90.179 E0.25186
G1 X152.881 Y90.728 E0.01331
G1 X145.531 Y83.379 E0.25186
G1 X145.531 Y83.928 E0.01331
G1 X152.881 Y91.278 E0.25186
G1 X152.881 Y91.827 E0.01331
G1 X145.531 Y84.477 E0.25186
G1 X145.531 Y85.027 E0.01331
G1 X152.881 Y92.377 E0.25186
G1 X152.881 Y92.926 E0.01331
G1 X145.531 Y85.576 E0.25186
G1 X145.531 Y86.126 E0.01331
G1 X152.881 Y93.476 E0.25186
G1 X152.881 Y94.025 E0.01331
G1 X145.531 Y86.675 E0.25186
G1 X145.531 Y87.225 E0.01331
G1 X152.881 Y94.575 E0.25186
G1 X152.901 Y95.144 E0.01381
G1 X145.531 Y87.774 E0.25254
G1 X145.531 Y88.324 E0.01331
G1 X153.029 Y95.822 E0.25694
G1 F5760
G1 X151.477 Y94.270 E-0.76000
G1 E-0.04000 F2100.00000
G1 X145.735 Y105.013 F7200.000
G1 E0.80000 F2100.00000
G1 F1440
G1 X145.531 Y104.809 E0.00700
G1 X145.531 Y104.259 E0.01331
G1 X146.285 Y105.013 E0.02583
G1 X146.834 Y105.013 E0.01331
G1 X145.531 Y103.710 E0.04466
G1 X145.531 Y103.160 E0.01331
G1 X147.384 Y105.013 E0.06349
G1 X147.933 Y105.013 E0.01331
G1 X145.531 Y102.611 E0.08232
G1 X145.531 Y102.061 E0.01331
G1 X148.483 Y105.013 E0.10115
G1 X149.032 Y105.013 E0.01331
G1 X145.531 Y101.512 E0.11998
G1 X145.531 Y100.962 E0.01331
G1 X149.582 Y105.013 E0.13881
G1 X150.131 Y105.013 E0.01331
G1 X145.531 Y100.413 E0.15764
G1 X145.531 Y99.863 E0.01331
G1 X150.681 Y105.013 E0.17647
G1 X151.230 Y105.013 E0.01331
G1 X145.531 Y99.314 E0.19530
G1 X145.531 Y98.764 E0.01331
G1 X151.780 Y105.013 E0.21413
G1 X152.329 Y105.013 E0.01331
G1 X145.531 Y98.215 E0.23296
G1 X145.531 Y97.665 E0.01331
G1 X152.879 Y105.013 E0.25179
G1 X153.428 Y105.013 E0.01331
G1 X145.531 Y97.116 E0.27062
G1 X145.531 Y96.566 E0.01331
G1 X153.978 Y105.013 E0.28945
G1 X154.527 Y105.013 E0.01331
G1 X145.531 Y96.017 E0.30828
G1 X145.531 Y95.467 E0.01331
G1 X155.077 Y105.013 E0.32711
G1 X155.626 Y105.013 E0.01331
G1 X145.531 Y94.918 E0.34594
G1 X145.531 Y94.368 E0.01331
G1 X156.176 Y105.013 E0.36477
G1 X156.725 Y105.013 E0.01331
G1 X145.531 Y93.819 E0.38360
G1 X145.531 Y93.269 E0.01331
G1 X157.275 Y105.013 E0.40243
G1 X157.824 Y105.013 E0.01331
G1 X145.531 Y92.720 E0.42126
G1 X145.531 Y92.170 E0.01331
G1 X158.374 Y105.013 E0.44009
G1 X158.923 Y105.013 E0.01331
G1 X145.531 Y91.621 E0.45892
G1 X145.531 Y91.071 E0.01331
G1 X159.473 Y105.013 E0.47775
G1 X160.022 Y105.013 E0.01331
G1 X145.531 Y90.522 E0.49658
G1 X145.531 Y89.972 E0.01331
G1 X160.572 Y105.013 E0.51541
G1 X161.121 Y105.013 E0.01331
G1 X145.531 Y89.423 E0.53424
G1 X145.531 Y88.873 E0.01331
G1 X161.671 Y105.013 E0.55307
G1 X162.220 Y105.013 E0.01331
G1 X154.722 Y97.515 E0.25694
G1 X155.400 Y97.643 E0.01671
G1 X162.770 Y105.013 E0.25254
G1 X163.319 Y105.013 E0.01331
G1 X155.969 Y97.663 E0.25186
G1 X156.519 Y97.663 E0.01331
G1 X163.869 Y105.013 E0.25186
G1 X164.418 Y105.013 E0.01331
G1 X157.068 Y97.663 E0.25186
G1 X157.618 Y97.663 E0.01331
G1 X164.968 Y105.013 E0.25186
G1 X165.517 Y105.013 E0.01331
G1 X158.167 Y97.663 E0.25186
G1 X158.717 Y97.663 E0.01331
G1 X166.067 Y105.013 E0.25186
G1 X166.616 Y105.013 E0.01331
G1 X159.266 Y97.663 E0.25186
G1 X159.816 Y97.663 E0.01331
G1 X167.166 Y105.013 E0.25186
G1 X167.715 Y105.013 E0.01331
G1 X160.365 Y97.663 E0.25186
G1 X160.915 Y97.663 E0.01331
G1 X168.265 Y105.013 E0.25186
G1 X168.814 Y105.013 E0.01331
G1 X161.464 Y97.663 E0.25186
G1 X162.014 Y97.663 E0.01331
G1 X169.364 Y105.013 E0.25186
G1 X169.913 Y105.013 E0.01331
G1 X162.563 Y97.663 E0.25186
G1 X163.113 Y97.663 E0.01331
G1 X170.463 Y105.013 E0.25186
G1 X171.012 Y105.013 E0.01331
G1 X163.662 Y97.663 E0.25186
G1 X164.212 Y97.663 E0.01331
G1 X171.562 Y105.013 E0.25186
G1 X172.111 Y105.013 E0.01331
G1 X164.761 Y97.663 E0.25186
G1 X165.311 Y97.663 E0.01331
G1 X172.661 Y105.013 E0.25186
G1 X173.210 Y105.013 E0.01331
G1 X165.860 Y97.663 E0.25186
G1 X166.410 Y97.663 E0.01331
G1 X173.759 Y105.013 E0.25186
G1 X174.309 Y105.013 E0.01331
G1 X166.959 Y97.663 E0.25186
G1 X167.509 Y97.663 E0.01331
G1 X174.858 Y105.013 E0.25186
G1 X175.408 Y105.013 E0.01331
G1 X168.021 Y97.626 E0.25312
G1 X168.490 Y97.545 E0.01152
G1 X175.957 Y105.013 E0.25591
G1 X176.507 Y105.013 E0.01331
G1 X168.878 Y97.384 E0.26142
G1 X169.235 Y97.192 E0.00983
G1 X177.056 Y105.013 E0.26801
G1 X177.606 Y105.013 E0.01331
G1 X169.546 Y96.953 E0.27619
G1 X169.821 Y96.679 E0.00941
G1 X177.881 Y104.738 E0.27619
G1 X177.881 Y104.189 E0.01331
G1 X170.060 Y96.368 E0.26801
G1 X170.252 Y96.011 E0.00983
G1 X177.881 Y103.639 E0.26142
G1 X177.881 Y103.090 E0.01331
G1 X170.413 Y95.622 E0.25591
G1 X170.494 Y95.154 E0.01152
G1 X177.881 Y102.540 E0.25313
G1 X177.881 Y101.991 E0.01331
G1 X170.531 Y94.641 E0.25186
G1 X170.531 Y94.092 E0.01331
G1 X177.881 Y101.441 E0.25186
G1 X177.881 Y100.892 E0.01331
G1 X170.531 Y93.542 E0.25186
G1 X170.531 Y92.993 E0.01331
G1 X177.881 Y100.342 E0.25186
G1 X177.881 Y99.793 E0.01331
G1 X170.531 Y92.443 E0.25186
G1 X170.531 Y91.894 E0.01331
G1 X177.881 Y99.243 E0.25186
G1 X177.881 Y98.694 E0.01331
G1 X170.531 Y91.344 E0.25186
G1 X170.531 Y90.795 E0.01331
G1 X177.881 Y98.144 E0.25186
G1 X177.881 Y97.595 E0.01331
G1 X170.531 Y90.245 E0.25186
G1 X170.531 Y89.696 E0.01331
G1 X177.881 Y97.046 E0.25186
G1 X177.881 Y96.496 E0.01331
G1 X170.531 Y89.146 E0.25186
G1 X170.531 Y88.597 E0.01331
G1 X177.881 Y95.947 E0.25186
G1 X177.881 Y95.397 E0.01331
G1 X170.531 Y88.047 E0.25186
G1 X170.531 Y87.498 E0.01331
G1 X177.881 Y94.848 E0.25186
G1 X177.881 Y94.298 E0.01331
G1 X170.531 Y86.948 E0.25186
G1 X170.531 Y86.399 E0.01331
G1 X177.881 Y93.749 E0.25186
G1 X177.881 Y93.199 E0.01331
G1 X170.531 Y85.849 E0.25186
G1 X170.531 Y85.300 E0.01331
G1 X177.881 Y92.650 E0.25186
G1 X177.881 Y92.100 E0.01331
G1 X170.531 Y84.750 E0.25186
G1 X170.531 Y84.201 E0.01331
G1 X177.881 Y91.551 E0.25186
G1 X177.881 Y91.001 E0.01331
G1 X170.531 Y83.651 E0.25186
G1 X170.531 Y83.102 E0.01331
G1 X177.881 Y90.452 E0.25186
G1 X177.881 Y89.902 E0.01331
G1 X170.465 Y82.486 E0.25412
G1 X170.223 Y81.695 E0.02005
G1 X177.881 Y89.353 E0.26242
G1 X177.881 Y88.803 E0.01331
G1 X161.741 Y72.663 E0.55307
G1 X162.290 Y72.663 E0.01331
G1 X177.881 Y88.254 E0.53424
G1 X177.881 Y87.704 E0.01331
G1 X162.840 Y72.663 E0.51541
G1 X163.389 Y72.663 E0.01331
G1 X177.881 Y87.155 E0.49658
G1 X177.881 Y86.605 E0.01331
G1 X163.939 Y72.663 E0.47775
G1 X164.488 Y72.663 E0.01331
G1 X177.881 Y86.056 E0.45892
G1 X177.881 Y85.506 E0.01331
G1 X165.038 Y72.663 E0.44009
G1 X165.587 Y72.663 E0.01331
G1 X177.881 Y84.957 E0.42126
G1 X177.881 Y84.407 E0.01331
G1 X166.137 Y72.663 E0.40244
G1 X166.686 Y72.663 E0.01331
G1 X177.881 Y83.858 E0.38361
G1 X177.881 Y83.308 E0.01331
G1 X167.236 Y72.663 E0.36478
G1 X167.785 Y72.663 E0.01331
G1 X177.881 Y82.759 E0.34595
G1 X177.881 Y82.209 E0.01331
G1 X168.335 Y72.663 E0.32712
G1 X168.884 Y72.663 E0.01331
G1 X177.881 Y81.660 E0.30829
G1 X177.881 Y81.110 E0.01331
G1 X169.434 Y72.663 E0.28946
G1 X169.983 Y72.663 E0.01331
G1 X177.881 Y80.561 E0.27063
G1 X177.881 Y80.011 E0.01331
G1 X170.533 Y72.663 E0.25180
G1 X171.082 Y72.663 E0.01331
G1 X177.881 Y79.462 E0.23297
G1 X177.881 Y78.912 E0.01331
G1 X171.632 Y72.663 E0.21414
G1 X172.181 Y72.663 E0.01331
G1 X177.881 Y78.363 E0.19531
G1 X177.881 Y77.813 E0.01331
G1 X172.731 Y72.663 E0.17648
G1 X173.280 Y72.663 E0.01331
G1 X177.881 Y77.264 E0.15765
G1 X177.881 Y76.714 E0.01331
G1 X173.830 Y72.663 E0.13882
G1 X174.379 Y72.663 E0.01331
G1 X177.881 Y76.165 E0.11999
G1 X177.881 Y75.615 E0.01331
G1 X174.929 Y72.663 E0.10116
G1 X175.478 Y72.663 E0.01331
G1 X177.881 Y75.066 E0.08233
G1 X177.881 Y74.516 E0.01331
G1 X176.028 Y72.663 E0.06350
G1 X176.577 Y72.663 E0.01331
G1 X177.881 Y73.967 E0.04467
G1 X177.881 Y73.417 E0.01331
G1 X177.127 Y72.663 E0.02584
G1 X177.676 Y72.663 E0.01331
G1 X177.881 Y72.868 E0.00701
G1 F5760
G1 X177.676 Y72.663 E-0.10018
G1 F5760
G1 X177.127 Y72.663 E-0.19032
G1 F5760
G1 X177.881 Y73.417 E-0.36934
G1 F5760
G1 X177.881 Y73.707 E-0.10016
G1 E-0.04000 F2100.00000
