; generated by Slic3r 1.30.0.25-prusa3d-release_candidate_1_3-win64 on 2016-10-20 at 12:22:16

; external perimeters extrusion width = 0.45mm
; perimeters extrusion width = 0.45mm
; infill extrusion width = 0.45mm
; solid infill extrusion width = 0.45mm
; top infill extrusion width = 0.40mm
; support material extrusion width = 0.35mm

M107
M115 U3.0.8 ; tell printer latest fw version
M83  ; extruder relative mode
M104 S210 ; set extruder temp
M140 S55 ; set bed temp
M190 S55 ; wait for bed temp
M109 S210 ; wait for extruder temp
G28 W ; home all without mesh bed level
G80 ; mesh bed leveling
G1 Y-3.0 F1000.0 ; go outside pritn area
G1 X60.0 E9.0  F1000.0 ; intro line
G1 X100.0 E12.5  F1000.0 ; intro line
G21 ; set units to millimeters
G90 ; use absolute coordinates
M83 ; use relative distances for extrusion
G1 E-0.80000 F2100.00000
G1 Z0.150 F7200.000
G1 X41.973 Y87.860 F7200.000
G1 E0.80000 F2100.00000
M204 S1000
G1 F1800
G1 X42.522 Y87.643 E0.01426
G1 X150.685 Y59.723 E2.70165
G1 X151.282 Y59.647 E0.01455
G1 X185.282 Y59.647 E0.82229
G1 X186.592 Y60.039 E0.03307
G1 X187.472 Y61.085 E0.03307
G1 X187.669 Y62.022 E0.02315
G1 X187.870 Y98.254 E0.87630
G1 X187.870 Y129.288 E0.75054
G1 X187.562 Y165.643 E0.87928
G1 X187.159 Y166.950 E0.03307
G1 X186.105 Y167.821 E0.03307
G1 X185.258 Y168.009 E0.02099
G1 X145.875 Y169.388 E0.95306
G1 X43.875 Y169.388 E2.46686
G1 X43.175 Y169.316 E0.01702
G1 X42.573 Y169.155 E0.01508
G1 X42.211 Y169.005 E0.00947
G1 X41.671 Y168.693 E0.01507
G1 X41.361 Y168.455 E0.00947
G1 X40.920 Y168.014 E0.01507
G1 X40.682 Y167.704 E0.00947
G1 X40.370 Y167.164 E0.01507
G1 X40.220 Y166.802 E0.00947
G1 X40.059 Y166.200 E0.01507
G1 X39.987 Y165.500 E0.01702
G1 X39.987 Y130.477 E0.84702
G1 X40.368 Y90.375 E0.96992
G1 X40.375 Y90.204 E0.00414
G1 X40.538 Y89.438 E0.01893
G1 X40.582 Y89.328 E0.00287
G1 X41.115 Y88.515 E0.02351
G1 X41.283 Y88.347 E0.00575
G1 X41.826 Y87.941 E0.01641
G1 X41.921 Y87.889 E0.00261
G1 F5760
G1 X42.522 Y87.643 E-0.22489
G1 F5760
G1 X44.018 Y87.257 E-0.53511
G1 E-0.04000 F2100.00000
G1 X174.964 Y87.549 F7200.000
G1 E0.80000 F2100.00000
G1 F1440
G1 X174.333 Y87.633 E0.01540
G1 X162.185 Y87.633 E0.29379
G1 X161.565 Y87.551 E0.01512
G1 X160.951 Y87.297 E0.01607
G1 X160.424 Y86.892 E0.01607
G1 X160.020 Y86.365 E0.01607
G1 X159.765 Y85.751 E0.01607
G1 X159.684 Y85.131 E0.01512
G1 X159.684 Y73.258 E0.28714
G1 X159.776 Y72.556 E0.01714
G1 X160.062 Y71.865 E0.01809
G1 X160.518 Y71.271 E0.01809
G1 X161.111 Y70.816 E0.01809
G1 X161.779 Y70.539 E0.01749
G1 X162.502 Y70.437 E0.01765
G1 X174.378 Y70.437 E0.28721
G1 X174.998 Y70.519 E0.01512
G1 X175.612 Y70.773 E0.01607
G1 X176.139 Y71.177 E0.01607
G1 X176.543 Y71.705 E0.01607
G1 X176.798 Y72.319 E0.01607
G1 X176.879 Y72.938 E0.01512
G1 X176.879 Y85.089 E0.29386
G1 X176.788 Y85.738 E0.01586
G1 X176.537 Y86.342 E0.01582
G1 X176.126 Y86.879 E0.01636
G1 X175.589 Y87.291 E0.01636
G1 X175.020 Y87.527 E0.01491
G1 X174.863 Y87.172 F7200.000
G1 F1080
G1 X174.307 Y87.245 E0.01355
G1 X162.210 Y87.245 E0.29256
G1 X161.667 Y87.173 E0.01327
G1 X161.147 Y86.958 E0.01360
G1 X160.701 Y86.616 E0.01360
G1 X160.358 Y86.169 E0.01360
G1 X160.143 Y85.650 E0.01360
G1 X160.072 Y85.106 E0.01327
G1 X160.072 Y73.284 E0.28591
G1 X160.154 Y72.657 E0.01529
G1 X160.401 Y72.060 E0.01562
G1 X160.794 Y71.548 E0.01562
G1 X161.307 Y71.155 E0.01562
G1 X161.882 Y70.916 E0.01506
G1 X162.529 Y70.825 E0.01581
G1 X174.353 Y70.825 E0.28594
G1 X174.896 Y70.896 E0.01327
G1 X175.416 Y71.112 E0.01360
G1 X175.862 Y71.454 E0.01360
G1 X176.205 Y71.900 E0.01360
G1 X176.420 Y72.420 E0.01360
G1 X176.492 Y72.964 E0.01327
G1 X176.492 Y85.062 E0.29258
G1 X176.411 Y85.635 E0.01401
G1 X176.199 Y86.147 E0.01339
G1 X175.849 Y86.602 E0.01389
G1 X175.393 Y86.952 E0.01389
G1 X174.918 Y87.149 E0.01244
G1 X174.759 Y87.558 F7200.000
G1 F5760
G1 X174.307 Y87.245 E-0.21423
G1 F5760
G1 X172.732 Y87.245 E-0.54577
G1 E-0.04000 F2100.00000
G1 X184.684 Y95.437 F7200.000
G1 E0.80000 F2100.00000
G1 F1440
G1 X151.879 Y95.437 E0.79337
G1 X151.879 Y62.633 E0.79337
G1 X184.684 Y62.633 E0.79337
G1 X184.684 Y95.377 E0.79192
G1 X185.072 Y95.825 F7200.000
G1 F1080
G1 X151.492 Y95.825 E0.81213
G1 X151.492 Y62.245 E0.81213
G1 X185.072 Y62.245 E0.81213
G1 X185.072 Y95.765 E0.81068
G1 X184.685 Y95.721 F7200.000
G1 F5760
G1 X182.877 Y95.769 E-0.76000
G1 E-0.04000 F2100.00000
G1 X175.239 Y70.331 F7200.000
G1 E0.80000 F2100.00000
G1 F1440
G1 X167.767 Y62.860 E0.25603
G1 X167.218 Y62.860 E0.01331
G1 X174.580 Y70.223 E0.25231
G1 X174.018 Y70.210 E0.01364
G1 X166.668 Y62.860 E0.25186
G1 X166.119 Y62.860 E0.01331
G1 X173.468 Y70.210 E0.25186
G1 X172.919 Y70.210 E0.01331
G1 X165.569 Y62.860 E0.25186
G1 X165.020 Y62.860 E0.01331
G1 X172.369 Y70.210 E0.25186
G1 X171.820 Y70.210 E0.01331
G1 X164.470 Y62.860 E0.25186
G1 X163.921 Y62.860 E0.01331
G1 X171.270 Y70.210 E0.25186
G1 X170.721 Y70.210 E0.01331
G1 X163.371 Y62.860 E0.25186
G1 X162.822 Y62.860 E0.01331
G1 X170.171 Y70.210 E0.25186
G1 X169.622 Y70.210 E0.01331
G1 X162.272 Y62.860 E0.25186
G1 X161.723 Y62.860 E0.01331
G1 X169.072 Y70.210 E0.25186
G1 X168.523 Y70.210 E0.01331
G1 X161.173 Y62.860 E0.25186
G1 X160.624 Y62.860 E0.01331
G1 X167.973 Y70.210 E0.25186
G1 X167.424 Y70.210 E0.01331
G1 X160.074 Y62.860 E0.25186
G1 X159.525 Y62.860 E0.01331
G1 X166.874 Y70.210 E0.25186
G1 X166.325 Y70.210 E0.01331
G1 X158.975 Y62.860 E0.25186
G1 X158.426 Y62.860 E0.01331
G1 X165.775 Y70.210 E0.25186
G1 X165.226 Y70.210 E0.01331
G1 X157.876 Y62.860 E0.25186
G1 X157.327 Y62.860 E0.01331
G1 X164.676 Y70.210 E0.25186
G1 X164.127 Y70.210 E0.01331
G1 X156.777 Y62.860 E0.25186
G1 X156.228 Y62.860 E0.01331
G1 X163.577 Y70.210 E0.25186
G1 X163.028 Y70.210 E0.01331
G1 X155.678 Y62.860 E0.25186
G1 X155.129 Y62.860 E0.01331
G1 X162.489 Y70.220 E0.25221
G1 X162.007 Y70.288 E0.01178
G1 X154.579 Y62.860 E0.25454
G1 X154.030 Y62.860 E0.01331
G1 X161.575 Y70.405 E0.25855
G1 X161.186 Y70.566 E0.01019
G1 X153.480 Y62.860 E0.26407
G1 X152.931 Y62.860 E0.01331
G1 X160.846 Y70.775 E0.27122
G1 X160.535 Y71.013 E0.00950
G1 X152.381 Y62.860 E0.27940
G1 X152.107 Y63.135 E0.00941
G1 X160.260 Y71.288 E0.27940
G1 X160.021 Y71.599 E0.00950
G1 X152.107 Y63.684 E0.27122
G1 X152.107 Y64.234 E0.01331
G1 X159.813 Y71.940 E0.26407
G1 X159.652 Y72.328 E0.01019
G1 X152.107 Y64.783 E0.25855
G1 X152.107 Y65.333 E0.01331
G1 X159.531 Y72.757 E0.25440
G1 X159.467 Y73.242 E0.01187
G1 X152.107 Y65.882 E0.25221
G1 X152.107 Y66.432 E0.01331
G1 X159.456 Y73.781 E0.25186
G1 X159.456 Y74.331 E0.01331
G1 X152.107 Y66.981 E0.25186
G1 X152.107 Y67.531 E0.01331
G1 X159.456 Y74.880 E0.25186
G1 X159.456 Y75.430 E0.01331
G1 X152.107 Y68.080 E0.25186
G1 X152.107 Y68.630 E0.01331
G1 X159.456 Y75.979 E0.25186
G1 X159.456 Y76.529 E0.01331
G1 X152.107 Y69.179 E0.25186
G1 X152.107 Y69.729 E0.01331
G1 X159.456 Y77.078 E0.25186
G1 X159.456 Y77.628 E0.01331
G1 X152.107 Y70.278 E0.25186
G1 X152.107 Y70.828 E0.01331
G1 X159.456 Y78.177 E0.25186
G1 X159.456 Y78.727 E0.01331
G1 X152.107 Y71.377 E0.25186
G1 X152.107 Y71.927 E0.01331
G1 X159.456 Y79.276 E0.25186
G1 X159.456 Y79.826 E0.01331
G1 X152.107 Y72.476 E0.25186
G1 X152.107 Y73.026 E0.01331
G1 X159.456 Y80.375 E0.25186
G1 X159.456 Y80.925 E0.01331
G1 X152.107 Y73.575 E0.25186
G1 X152.107 Y74.125 E0.01331
G1 X159.456 Y81.474 E0.25186
G1 X159.456 Y82.024 E0.01331
G1 X152.107 Y74.674 E0.25186
G1 X152.107 Y75.224 E0.01331
G1 X159.456 Y82.573 E0.25186
G1 X159.456 Y83.123 E0.01331
G1 X152.107 Y75.773 E0.25186
G1 X152.107 Y76.323 E0.01331
G1 X159.456 Y83.672 E0.25186
G1 X159.456 Y84.222 E0.01331
G1 X152.107 Y76.872 E0.25186
G1 X152.107 Y77.422 E0.01331
G1 X159.456 Y84.771 E0.25186
G1 X159.470 Y85.334 E0.01364
G1 X152.107 Y77.971 E0.25231
G1 X152.107 Y78.521 E0.01331
G1 X159.578 Y85.992 E0.25603
G1 F5760
G1 X158.027 Y84.440 E-0.76000
G1 E-0.04000 F2100.00000
G1 X152.311 Y95.210 F7200.000
G1 E0.80000 F2100.00000
G1 F1440
G1 X152.107 Y95.005 E0.00700
G1 X152.107 Y94.456 E0.01331
G1 X152.861 Y95.210 E0.02583
G1 X153.410 Y95.210 E0.01331
G1 X152.107 Y93.906 E0.04466
G1 X152.107 Y93.357 E0.01331
G1 X153.960 Y95.210 E0.06349
G1 X154.509 Y95.210 E0.01331
G1 X152.107 Y92.807 E0.08232
G1 X152.107 Y92.258 E0.01331
G1 X155.059 Y95.210 E0.10115
G1 X155.608 Y95.210 E0.01331
G1 X152.107 Y91.708 E0.11998
G1 X152.107 Y91.159 E0.01331
G1 X156.158 Y95.210 E0.13881
G1 X156.707 Y95.210 E0.01331
G1 X152.107 Y90.609 E0.15764
G1 X152.107 Y90.060 E0.01331
G1 X157.256 Y95.210 E0.17647
G1 X157.806 Y95.210 E0.01331
G1 X152.107 Y89.510 E0.19530
G1 X152.107 Y88.961 E0.01331
G1 X158.355 Y95.210 E0.21413
G1 X158.905 Y95.210 E0.01331
G1 X152.107 Y88.411 E0.23296
G1 X152.107 Y87.862 E0.01331
G1 X159.454 Y95.210 E0.25179
G1 X160.004 Y95.210 E0.01331
G1 X152.107 Y87.312 E0.27062
G1 X152.107 Y86.763 E0.01331
G1 X160.553 Y95.210 E0.28945
G1 X161.103 Y95.210 E0.01331
G1 X152.107 Y86.213 E0.30828
G1 X152.107 Y85.664 E0.01331
G1 X161.652 Y95.210 E0.32711
G1 X162.202 Y95.210 E0.01331
G1 X152.107 Y85.114 E0.34594
G1 X152.107 Y84.565 E0.01331
G1 X162.751 Y95.210 E0.36477
G1 X163.301 Y95.210 E0.01331
G1 X152.107 Y84.015 E0.38360
G1 X152.107 Y83.466 E0.01331
G1 X163.850 Y95.210 E0.40243
G1 X164.400 Y95.210 E0.01331
G1 X152.107 Y82.916 E0.42126
G1 X152.107 Y82.367 E0.01331
G1 X164.949 Y95.210 E0.44009
G1 X165.499 Y95.210 E0.01331
G1 X152.107 Y81.817 E0.45892
G1 X152.107 Y81.268 E0.01331
G1 X166.048 Y95.210 E0.47775
G1 X166.598 Y95.210 E0.01331
G1 X152.107 Y80.718 E0.49658
G1 X152.107 Y80.169 E0.01331
G1 X167.147 Y95.210 E0.51541
G1 X167.697 Y95.210 E0.01331
G1 X152.107 Y79.619 E0.53424
G1 X152.107 Y79.070 E0.01331
G1 X168.246 Y95.210 E0.55307
G1 X168.796 Y95.210 E0.01331
G1 X161.324 Y87.738 E0.25603
G1 X161.982 Y87.847 E0.01616
G1 X169.345 Y95.210 E0.25231
G1 X169.895 Y95.210 E0.01331
G1 X162.545 Y87.860 E0.25186
G1 X163.095 Y87.860 E0.01331
G1 X170.444 Y95.210 E0.25186
G1 X170.994 Y95.210 E0.01331
G1 X163.644 Y87.860 E0.25186
G1 X164.194 Y87.860 E0.01331
G1 X171.543 Y95.210 E0.25186
G1 X172.093 Y95.210 E0.01331
G1 X164.743 Y87.860 E0.25186
G1 X165.293 Y87.860 E0.01331
G1 X172.642 Y95.210 E0.25186
G1 X173.192 Y95.210 E0.01331
G1 X165.842 Y87.860 E0.25186
G1 X166.392 Y87.860 E0.01331
G1 X173.741 Y95.210 E0.25186
G1 X174.291 Y95.210 E0.01331
G1 X166.941 Y87.860 E0.25186
G1 X167.491 Y87.860 E0.01331
G1 X174.840 Y95.210 E0.25186
G1 X175.390 Y95.210 E0.01331
G1 X168.040 Y87.860 E0.25186
G1 X168.589 Y87.860 E0.01331
G1 X175.939 Y95.210 E0.25186
G1 X176.489 Y95.210 E0.01331
G1 X169.139 Y87.860 E0.25186
G1 X169.688 Y87.860 E0.01331
G1 X177.038 Y95.210 E0.25186
G1 X177.588 Y95.210 E0.01331
G1 X170.238 Y87.860 E0.25186
G1 X170.787 Y87.860 E0.01331
G1 X178.137 Y95.210 E0.25186
G1 X178.687 Y95.210 E0.01331
G1 X171.337 Y87.860 E0.25186
G1 X171.886 Y87.860 E0.01331
G1 X179.236 Y95.210 E0.25186
G1 X179.786 Y95.210 E0.01331
G1 X172.436 Y87.860 E0.25186
G1 X172.985 Y87.860 E0.01331
G1 X180.335 Y95.210 E0.25186
G1 X180.885 Y95.210 E0.01331
G1 X173.535 Y87.860 E0.25186
G1 X174.084 Y87.860 E0.01331
G1 X181.434 Y95.210 E0.25186
G1 X181.984 Y95.210 E0.01331
G1 X174.592 Y87.818 E0.25331
G1 X175.054 Y87.731 E0.01141
G1 X182.533 Y95.210 E0.25628
G1 X183.083 Y95.210 E0.01331
G1 X175.443 Y87.570 E0.26180
G1 X175.798 Y87.375 E0.00981
G1 X183.632 Y95.210 E0.26846
G1 X184.182 Y95.210 E0.01331
G1 X176.109 Y87.137 E0.27664
G1 X176.383 Y86.862 E0.00941
G1 X184.456 Y94.935 E0.27664
G1 X184.456 Y94.385 E0.01331
G1 X176.622 Y86.551 E0.26847
G1 X176.817 Y86.196 E0.00981
G1 X184.456 Y93.836 E0.26180
G1 X184.456 Y93.286 E0.01331
G1 X176.978 Y85.808 E0.25628
G1 X177.062 Y85.343 E0.01145
G1 X184.456 Y92.737 E0.25338
G1 X184.456 Y92.188 E0.01331
G1 X177.107 Y84.838 E0.25186
G1 X177.107 Y84.288 E0.01331
G1 X184.456 Y91.638 E0.25186
G1 X184.456 Y91.089 E0.01331
G1 X177.107 Y83.739 E0.25186
G1 X177.107 Y83.189 E0.01331
G1 X184.456 Y90.539 E0.25186
G1 X184.456 Y89.990 E0.01331
G1 X177.107 Y82.640 E0.25186
G1 X177.107 Y82.090 E0.01331
G1 X184.456 Y89.440 E0.25186
G1 X184.456 Y88.891 E0.01331
G1 X177.107 Y81.541 E0.25186
G1 X177.107 Y80.991 E0.01331
G1 X184.456 Y88.341 E0.25186
G1 X184.456 Y87.792 E0.01331
G1 X177.107 Y80.442 E0.25186
G1 X177.107 Y79.892 E0.01331
G1 X184.456 Y87.242 E0.25186
G1 X184.456 Y86.693 E0.01331
G1 X177.107 Y79.343 E0.25186
G1 X177.107 Y78.793 E0.01331
G1 X184.456 Y86.143 E0.25186
G1 X184.456 Y85.594 E0.01331
G1 X177.107 Y78.244 E0.25186
G1 X177.107 Y77.694 E0.01331
G1 X184.456 Y85.044 E0.25186
G1 X184.456 Y84.495 E0.01331
G1 X177.107 Y77.145 E0.25186
G1 X177.107 Y76.595 E0.01331
G1 X184.456 Y83.945 E0.25186
G1 X184.456 Y83.396 E0.01331
G1 X177.107 Y76.046 E0.25186
G1 X177.107 Y75.496 E0.01331
G1 X184.456 Y82.846 E0.25186
G1 X184.456 Y82.297 E0.01331
G1 X177.107 Y74.947 E0.25186
G1 X177.107 Y74.397 E0.01331
G1 X184.456 Y81.747 E0.25186
G1 X184.456 Y81.198 E0.01331
G1 X177.107 Y73.848 E0.25186
G1 X177.107 Y73.299 E0.01331
G1 X184.456 Y80.648 E0.25186
G1 X184.456 Y80.099 E0.01331
G1 X177.094 Y72.736 E0.25231
G1 X176.985 Y72.078 E0.01616
G1 X184.456 Y79.549 E0.25603
G1 X184.456 Y79.000 E0.01331
G1 X168.317 Y62.860 E0.55307
G1 X168.866 Y62.860 E0.01331
G1 X184.456 Y78.450 E0.53424
G1 X184.456 Y77.901 E0.01331
G1 X169.416 Y62.860 E0.51541
G1 X169.965 Y62.860 E0.01331
G1 X184.456 Y77.351 E0.49658
G1 X184.456 Y76.802 E0.01331
G1 X170.515 Y62.860 E0.47775
G1 X171.064 Y62.860 E0.01331
G1 X184.456 Y76.252 E0.45892
G1 X184.456 Y75.703 E0.01331
G1 X171.614 Y62.860 E0.44009
G1 X172.163 Y62.860 E0.01331
G1 X184.456 Y75.153 E0.42126
G1 X184.456 Y74.604 E0.01331
G1 X172.713 Y62.860 E0.40244
G1 X173.262 Y62.860 E0.01331
G1 X184.456 Y74.054 E0.38361
G1 X184.456 Y73.505 E0.01331
G1 X173.811 Y62.860 E0.36478
G1 X174.361 Y62.860 E0.01331
G1 X184.456 Y72.955 E0.34595
G1 X184.456 Y72.406 E0.01331
G1 X174.910 Y62.860 E0.32712
G1 X175.460 Y62.860 E0.01331
G1 X184.456 Y71.856 E0.30829
G1 X184.456 Y71.307 E0.01331
G1 X176.009 Y62.860 E0.28946
G1 X176.559 Y62.860 E0.01331
G1 X184.456 Y70.757 E0.27063
G1 X184.456 Y70.208 E0.01331
G1 X177.108 Y62.860 E0.25180
G1 X177.658 Y62.860 E0.01331
G1 X184.456 Y69.658 E0.23297
G1 X184.456 Y69.109 E0.01331
G1 X178.207 Y62.860 E0.21414
G1 X178.757 Y62.860 E0.01331
G1 X184.456 Y68.559 E0.19531
G1 X184.456 Y68.010 E0.01331
G1 X179.306 Y62.860 E0.17648
G1 X179.856 Y62.860 E0.01331
G1 X184.456 Y67.460 E0.15765
G1 X184.456 Y66.911 E0.01331
G1 X180.405 Y62.860 E0.13882
G1 X180.955 Y62.860 E0.01331
G1 X184.456 Y66.361 E0.11999
G1 X184.456 Y65.812 E0.01331
G1 X181.504 Y62.860 E0.10116
G1 X182.054 Y62.860 E0.01331
G1 X184.456 Y65.262 E0.08233
G1 X184.456 Y64.713 E0.01331
G1 X182.603 Y62.860 E0.06350
G1 X183.153 Y62.860 E0.01331
G1 X184.456 Y64.163 E0.04467
G1 X184.456 Y63.614 E0.01331
G1 X183.702 Y62.860 E0.02584
G1 X184.252 Y62.860 E0.01331
G1 X184.456 Y63.064 E0.00701
G1 F5760
G1 X184.252 Y62.860 E-0.10018
G1 F5760
G1 X183.702 Y62.860 E-0.19032
G1 F5760
G1 X184.456 Y63.614 E-0.36934
G1 F5760
G1 X184.456 Y63.903 E-0.10016
G1 E-0.04000 F2100.00000
G1 Z0.150 F7200.000
G1 Z0.150 F7200.000
G1 X158.963 Y123.249 F7200.000
G1 E0.80000 F2100.00000
G1 F720
G1 X159.560 Y123.577 E0.01645
G1 X160.063 Y124.055 E0.01681
G1 X160.419 Y124.615 E0.01604
G1 X160.629 Y125.262 E0.01644
G1 X160.671 Y125.940 E0.01644
G1 X160.544 Y126.608 E0.01644
G1 X160.255 Y127.223 E0.01644
G1 X159.821 Y127.747 E0.01644
G1 X159.271 Y128.146 E0.01644
G1 X158.639 Y128.396 E0.01644
G1 X157.965 Y128.482 E0.01644
G1 X157.291 Y128.396 E0.01644
G1 X156.659 Y128.146 E0.01644
G1 X156.109 Y127.747 E0.01644
G1 X155.676 Y127.223 E0.01644
G1 X155.393 Y126.623 E0.01604
